X:1
T:Yes, Dear Lord
T:Yes, Dear Lord
T:Lelia Naylor Morris
T:Lelia Naylor Morris, 1901
T:Public Domain Courtesy of the Cyber Hymnal™
C:Lelia Naylor Morris
Z:Public Domain
Z:Courtesy of the Cyber Hymnal™
%%score ( 1 2 ) ( 3 4 )
L:1/8
Q:1/4=100
M:6/8
K:Ab
V:1 treble 
V:2 treble 
V:3 bass 
V:4 bass 
V:1
 [CA]2 [CA] ([CA][DB])[Ec] | [FB]2 [DF] [DF]2 [DA] | [CE]2 [CA] (AG)[_DA] | [EB]3 (e2 d) | %4
w: 1.~Long my will- * ful|heart said “no!” To|Je- sus’ ten- * der|plead- ing; *|
w: 2.~Bring- ing all * I|am and have In|hum- ble con- * se-|cra- tion, *|
w: 3.~Giv- ing o’er * my|doubts and fears And|all my use- * less|try- ing, *|
w: 4.~Yes, dear Lord, * in|life or death With|Thee all good * pos-|sess- ing, *|
 [Ac]2 [Ac] (c=B)[Ac] | [FB]2 [DF] [DF]2 [DA] | [CE]2 [CA] [Ec]2 [CA] | [DB]3 [CA]3 || %8
w: Now I long * His|love to know, My|stub- born will is|yield- ing.|
w: Trust- ing in * the|blood I claim This|ut- ter- most sal-|va- tion.|
w: Trust- ing not * my|prayers or tears, But|on Thy Word re-|ly- ing.|
w: Not by feel- * ing,|but by faith I|take the prom- ised|bless- ing.|
"^Refrain" [Ec]2 [CA] [CA]3 | [DB]2 [DF] [DF]3 | [DG]2 [EA] [EB]2 [EG] | A2 [AB] c2 d | %12
w: ||||
w: ||||
w: ||||
w: ||||
 [Ee]2 [Ec] [CA]3 | [FB]2 [Fc] !fermata![Fd]2 [Fd] | [Ec]2 [CA] [Ec]2 [DB] | [CA]6 |] %16
w: ||||
w: ||||
w: ||||
w: ||||
V:2
 x6 | x6 | x3 =D2 x | x3 E3 | x3 A2 x | x6 | x6 | x6 || x6 | x6 | x6 | A2 A3 x | x6 | x6 | x6 | %15
 x6 |] %16
V:3
 [A,,E,]2 [A,,E,] [A,,A,]2 [A,,A,] | [D,A,]2 [D,A,] [D,A,]2 [F,A,] | A,2 A, [B,,B,]2 [B,,F,] | %3
w: ~ ~ ~ ~|~ ~ ~ ~|~ ~ ~ ~|
 [E,G,]3 (B,2 E) | [A,E]2 [A,E] (E=D)[A,E] | [D,D]2 [D,A,] [D,A,]2 [F,A,] | %6
w: ~ ~ *|~ ~ ~ * ~|~ ~ ~ ~|
 A,2 [F,A,] [E,A,]2 [E,A,] | [E,G,]3 [A,,E,]3 || [A,,A,]2 [A,,E,] [A,,E,]3 | %9
w: ~ ~ ~ ~|~ ~|Yes, dear Lord,|
 [D,F,]2 [D,A,] [D,A,]3 | [E,B,]2 [E,C] [E,D]2 [E,B,] | [A,C]2 [A,D] [A,E]3 | [A,C]2 A, A,3 | %13
w: yes, dear Lord,|Here I give my|all to Thee;|I be- lieve,|
 [D,A,]2 [C,=A,] !fermata![B,,B,]2 [B,,B,] | [E,A,]2 [E,A,] [E,G,]2 [E,G,] | [A,,E,]6 |] %16
w: I be- lieve, The|blood a- vails for|me.|
V:4
 x6 | x6 | A,2 A, x3 | x3 E,3 | x3 A,2 x | x6 | A,2 x4 | x6 || x6 | x6 | x6 | x6 | x2 A, A,3 | x6 | %14
 x6 | x6 |] %16

